X:1
T:Title
%%score 1 { ( 2 3 ) | ( 4 5 ) }
L:1/8
Q:1/4=75
M:6/8
K:F
V:1 treble nm="Akkordion"
V:2 treble nm="Grand Piano"
V:3 treble 
V:4 bass 
V:5 bass 
V:1
 CA>A A2 F/F/ | GFD .F3 | FAc cAA | AGF G3 | CA>A A2 F/F/ | GFD F3 | FBd c>AF | %7
w: Chas.~H.~Gabriel * * * * *|||||||
[M:15/16] CA/-A/G F3 z3/2 |[M:3/4] Ad- d/d/ d2 A/A/ | BA G A3 | AF- F/E/ D2 E/E/ | FG- G/_A/ =A3 | %12
w: |||||
 Ad- d/d/ d2 A/A/ | BA G A3 | Ac- c/c/ c2 F/B/ | AA- A/G/ F3 | z6 | z6 | z6 |[M:7/8] z7 | %20
w: ||||||||
[M:3/4] z6 | z6 |[M:7/8] z7 | %23
w: |||
[M:3/4] z6[Q:1/4=73][Q:1/4=70][Q:1/4=68][Q:1/4=66][Q:1/4=63][Q:1/4=61][Q:1/4=59] |] %24
w: |
V:2
 z FF z FF | z[K:treble] FF[K:bass] z[K:treble] FF | z FF z FF | z FF[K:bass] z EE | %4
 z[K:treble] FF z FF | z[K:treble] FF[K:bass] z[K:treble] FF | %6
 z[K:treble] FF[K:bass] z[K:treble] FF |[M:15/16][K:bass] z[K:treble] F/-F/E z F-<F[A,CF]3/2 | %8
[M:3/4][K:bass] z D[K:treble] .F2 FF | z[K:treble] F .F2 FF | z F .F2 FF | %11
 z[K:treble] G ._A2[K:bass] ^C,E, | z[K:treble] F .F2 FF | z[K:treble] G .G2 FF | %14
 z[K:treble] F [G,CE][F,CF] [_EF][F,B,DF]/F/ | z F .E2[K:treble] FF | %16
 [Ec][Ec]- [Ec]/[Ec]/[B,c]- [B,-Fc-][B,Gc] | dc- c/A/ c3 | AA [GA] [FA]2 [FA]/[G=B]/ | %19
[M:7/8] [EGc][Ge][Fd] c-[Fc-]3/2[G-c]G/ |[M:3/4] cc- c/A/A/F/- F z/ F/ | EA [_Ec] [DB]3 | %22
[M:7/8] [Fd][Fe]>[Fd] [Fc]3 [CFA]/[=B,F]/ |[M:3/4] [CFA][CFA]- [CFA]/[B,CG]/ [F,A,CF]3 |] %24
V:3
 .F,3 .F,3 | .B,,3[K:treble][K:bass] .B,,3[K:treble] | .F,3 .F,3 | .D,3[K:bass] .C,3 | %4
 .F,3[K:treble] .F,3 | .B,,3[K:treble][K:bass] .B,,3[K:treble] | %6
 .B,,3[K:treble][K:bass] .C,3[K:treble] |[M:15/16][K:bass] .C,3[K:treble] F,3 z3/2 | %8
[M:3/4][K:bass] D,2[K:treble] z .D,3 | ^C,2[K:treble] z .D,3 | D,2 z .D,3 | %11
 B,,2[K:treble] z [A,^CE=A]3[K:bass] | D,2[K:treble] z .D,3 | ^C,2[K:treble] z D,3 | %14
 C,2[K:treble] z2 z2 | C,2 z F,3[K:treble] | z2 z E z2 | x6 | x6 |[M:7/8] z z2 .[CE] z z2 | %20
[M:3/4] x6 | x6 |[M:7/8] x7 |[M:3/4] x6 |] %24
V:4
 z [A,C][A,C] z [A,C][A,C] | z [B,D][B,D] z [B,D][B,^C] | z [A,C][A,C] z [A,C][A,C] | %3
 z [G,=B,D][G,B,D] z [G,C][G,_B,C] | z [A,C][A,C] z [A,C][A,C] | z [B,D][B,D] z [B,D][B,D] | %6
 z [B,D][_A,=B,] z [=A,C][A,C] |[M:15/16] z [A,C]/-[A,C]/[G,B,C] z [B,D]-<[B,D][F,,,F,,]3/2 | %8
[M:3/4] z A, .[A,D]2 [A,D][A,D] | z [A,D] .[A,D]2 [A,D][A,D] | z [A,D] .[A,D]2 [A,D][A,D] | %11
 z[K:treble] [B,DF] [B,DF][K:bass][A,,,A,,] ^C,,E,, | z [A,D] .[A,D]2 [A,D][A,D] | %13
 z [A,E] .[A,E]2 [A,D][A,D] | z [A,C] .[B,,,B,,]2 .[F,C]>[F,B,^C] | z [A,C] .[B,C]2 [A,C][A,C] | %16
 [C,B,][C,B,]- [C,B,]/[C,B,]/C, D,E, | [F,B,F][F,A,F]- [F,A,F]/[F,CF]/ [F,A,F]3 | %18
 [F,CF][F,CF] [E,^C] [D,D]2 [D,D]/[D,D]/ |[M:7/8] C,[G,C][G,=B,] z/ F,<A,B,3/2 | %20
[M:3/4] [F,A,F][F,A,F]- [F,A,F]/[F,CF]/[F,CF]/[F,A,C]/- [F,A,C] z/ [F,A,C]/ | %21
 [F,A,C][F,CF] [A,,F,] [B,,F,]3 |[M:7/8] [=B,,_A,][B,,A,]>[B,,A,] [C,=A,]3 C,/D,/ | %23
[M:3/4] C,C,- C,/C,/ F,,3 |] %24
V:5
 .F,,3 .F,,3 | .B,,,3 .B,,,3 | .F,,3 .F,,3 | .D,,3 .C,,3 | .F,,3 .F,,3 | .B,,,3 .B,,,3 | %6
 .B,,,3 .C,,3 |[M:15/16] .C,,3 F,,3 z3/2 |[M:3/4] D,,2 z .D,,3 | ^C,,2 z .D,,3 | D,,2 z .D,,3 | %11
 B,,,2[K:treble] z2[K:bass] z2 | D,,2 z .D,,3 | ^C,,2 z D,,3 | B,,,2 z [A,,,A,,]2 [B,,,B,,] | %15
 C,,2 z F,,3 | x6 | x6 | x6 |[M:7/8] z z2 C,- C,2- C,/ z/ |[M:3/4] x6 | x6 |[M:7/8] x7 | %23
[M:3/4] x6 |] %24

